src/icon/action/action-photo-or-file/icon_action-photo-or-file_m_white.svg

<svg width="24px" height="24px" viewBox="0 0 24 24" version="1.1" xmlns="http://www.w3.org/2000/svg"><g stroke="none" stroke-width="1" fill="none" fill-rule="evenodd"><rect opacity="0" x="0" y="0" width="24" height="24"/><g transform="translate(3.000000, 1.000000)" fill="#FFFFFF"><path d="M8.91539524,5 L2,5 C1.44771525,5 1,5.44771525 1,6 L1,20 C1,20.5522847 1.44771525,21 2,21 L13,21 C13.5522847,21 14,20.5522847 14,20 L14,8.86098402 L8.91539524,5 Z M2,4 L9.25204069,4 L15,8.36470092 L15,20 C15,21.1045695 14.1045695,22 13,22 L2,22 C0.8954305,22 1.3527075e-16,21.1045695 0,20 L0,6 C-1.3527075e-16,4.8954305 0.8954305,4 2,4 Z" fill-rule="nonzero"/><path d="M12.9153952,1 L18,4.86098402 L18,16 C18,16.5522847 17.5522847,17 17,17 L15,17 L15,18 L17,18 C18.1045695,18 19,17.1045695 19,16 L19,4.36470092 L13.2520407,0 L6,0 C4.8954305,2.02906125e-16 4,0.8954305 4,2 L4,4 L5,4 L5,2 C5,1.44771525 5.44771525,1 6,1 L12.9153952,1 Z" fill-rule="nonzero"/><path d="M2.07921087,17.2222993 L4.59397884,13.457028 C4.90071854,12.9977577 5.52169234,12.8741073 5.98096263,13.180847 C6.10928863,13.266554 6.21603819,13.380797 6.29285572,13.5146339 L7.18195071,15.0636781 C7.45687555,15.5426716 8.06804713,15.7081019 8.54704063,15.4331771 C8.66777646,15.3638791 8.77271353,15.2701361 8.85513485,15.1579484 L9.0022655,14.9576816 C9.32925437,14.5126011 9.95514033,14.4168688 10.4002209,14.7438577 C10.5124086,14.826279 10.6061517,14.9312161 10.6754496,15.0519519 L11.9376819,17.2511023 C12.0751444,17.490599 11.9924292,17.7961848 11.7529324,17.9336472 C11.6771855,17.9771232 11.5913718,18 11.5040347,18 L2.49500208,18 C2.21885971,18 1.99500208,17.7761424 1.99500208,17.5 C1.99500208,17.4011439 2.02430608,17.3045063 2.07921087,17.2222993 Z" fill-opacity="0.3"/><circle fill-opacity="0.3" cx="8.5" cy="10.5" r="1.5"/></g></g></svg>

<svg width="24" height="24" viewBox="0 0 24 24" xmlns="http://www.w3.org/2000/svg"><g transform="translate(3 1)" fill="#FFF" fill-rule="evenodd" opacity=".8"><path d="M8.915 5H2a1 1 0 0 0-1 1v14a1 1 0 0 0 1 1h11a1 1 0 0 0 1-1V8.861L8.915 5zM2 4h7.252L15 8.365V20a2 2 0 0 1-2 2H2a2 2 0 0 1-2-2V6a2 2 0 0 1 2-2z" fill-rule="nonzero"/><path d="M12.647.796l.605.204h-.337l-.268-.204zm.268.204L18 4.861V16a1 1 0 0 1-1 1h-2.493v1H17a2 2 0 0 0 2-2V4.365L13.252 0H6a2 2 0 0 0-2 2v2.58h1V2a1 1 0 0 1 1-1h6.915zm5.48 4.161L18 4.365v.496l.395.3zM18 4.365l.395.796-.395-.3v-.496zm0 .496V16a1 1 0 0 1-1 1h-2.493v1H17a2 2 0 0 0 2-2V4.365L13.252 0H6a2 2 0 0 0-2 2v2.58h1V2a1 1 0 0 1 1-1h6.915L18 4.861zM13.252 1l-.605-.204.268.204h.337z" fill-rule="nonzero"/><path d="M2.08 17.222l2.514-3.765a1 1 0 0 1 1.699.058l.889 1.549a1 1 0 0 0 1.673.094l.147-.2a1 1 0 0 1 1.673.094l1.263 2.2a.5.5 0 0 1-.434.748H2.495a.5.5 0 0 1-.416-.778z" opacity=".3"/><rect opacity=".3" x="7" y="9" width="3" height="3" rx="1.5"/></g></svg>
